!!!!SEGMENT: pl-wn--mus-iii-105-719-2--006_zelenski-wladyslaw--25-preludyi-op-38-22-allegro-moderato-koleda.krn
!!!cenid: 18xx:3755
!!!COM: Żeleński, Władysław
!!!COM-rismID: pe41024455
!!!CDT: 1837/07/06-1921/01/23
!!!CNT: Polish
!!!GTL: 25 preludyi op. 38
!!!OTL: 22. Allegro moderato. Kolęda
!!!PDT: 1881
!!!AGN:
!!!SMS-siglum: PL-Wn
!!!SMS-shelfmark: Mus.III.105.719/2
!!!SMS-shelfwork: 006 G
!!!SMS-variant:
!!!SMS-altvar:
!!!NIFC-rismSourceID:
!!!NIFC-rismChildID:
!!!NIFC-islandoraID: none
!!!URL-pdf-islandora:
!!!URL-scan: https://polona.pl/item/25-preludyi-2-3-i-4-glosowych-na-organ-lub-fisharmonike-do-uzytku-organistow-i,ODE1NjEwNDA/2 @EN{Scan on Polona} @PL{Skany w portalu Polona}
!!!ONB-nifc:
!!!AIN: 1 organ 1 physh
!!!key: F
**kern	**fing	**kern	**fing	**dynam
*part1	*part1	*part1	*part1	*part1
*staff2	*	*staff1	*	*
*I"organ lub fisharmonika	*	*I"organ lub fisharmonika	*	*
*I'org	*	*I'org	*	*
*Iorgan|Iphysh	*	*Iorgan|Iphysh	*	*
*ICklav	*	*ICklav	*	*
*clefF4	*	*clefG2	*	*
*k[b-]	*	*k[b-]	*	*
*F:	*	*F:	*	*
*M3/4	*	*M3/4	*	*
=1	=1	=1	=1	=1
*xywh-8:504,274,5381,1332	*	*xywh-8:504,274,5381,1332	*	*
*ped	*	*	*	*
!LO:SIC:v:s=Ped i wiele kropek	!	!LO:TX:a:t=Allegro moderato. Kolę da.	!	!
!	!	!LO:TX:a:t=1):prawa ręka na drugiej klawiaturze: Die rechte Hand auſ dem zweiten Manual	!	!
[2.FF/ [2.C	.	2.r	.	pp
=2	=2	=2	=2	=2
2.FF/_ 2.C_	.	2.r	.	.
=3	=3	=3	=3	=3
2.FF/_ 2.C_	.	4r	.	.
*	*	*	*below	*
!	!	!LO:TX:b:i:t=dolec	!	!
.	.	(>4c/	4	.
.	.	4d/	.	.
=4	=4	=4	=4	=4
2.FF/_ 2.C_	.	8c/L	.	.
.	.	8A/J	.	.
.	.	4B-/	.	.
.	.	4G/	.	.
=5	=5	=5	=5	=5
2.FF/_ 2.C_	.	4A/	2	.
.	.	4c/	3	.
.	.	8d/L	4	.
.	.	8e/J	5	.
=6	=6	=6	=6	=6
2.FF/_ 2.C_	.	8d/L	4	.
.	.	8A/J	1	.
.	.	4B-/	3	.
.	.	4G/	2	.
=7	=7	=7	=7	=7
2.FF/_ 2.C_	.	8A/L	1	.
.	.	8c/	2	.
.	.	8d/	3	.
.	.	8f/	5	.
.	.	8e/	4	.
.	.	8c/J	2	.
=8	=8	=8	=8	=8
2.FF/_ 2.C_	.	8d/L	.	.
.	.	8f/	.	.
.	.	8e/	.	.
.	.	8c/	1	.
.	.	8d/	2	.
.	.	8f/J	3	.
=9	=9	=9	=9	=9
*^	*	*	*	*
(4.C/]	2.FF\_	.	4g/)	4	.
.	.	.	(4c/	1	.
8D/	.	2	.	.	.
!	!LO:TX:t=P:problem=łuk między cyframi palcowania	!	!	!	!
4E/	.	1	4b-\	5	.
.	.	2	.	.	.
=10	=10	=10	=10	=10	=10
4F/	2.FF\_	.	4a/	.	.
4AA/	.	3	8g/L	.	.
.	.	.	8f/	.	.
4BB-X/	.	2	8e/	.	.
.	.	.	8d/J	2	.
=11	=11	=11	=11	=11	=11
8C/L	2.FF\_	1	4e/)	3	.
8D/	.	2	.	.	.
8E/	.	1	(4c/	.	.
8C/	.	2	.	.	.
8D/	.	1	4b-\	.	.
8E/J	.	2	.	.	.
!!LO:LB:g=original
=12	=12	=12	=12	=12	=12
*xywh-8:521,1344,5376,1091	*xywh-8:521,1344,5376,1091	*	*xywh-8:521,1344,5376,1091	*	*
8F/)	8FF\]	1	8a/L	.	.
8r	2ryy	.	8g/	.	.
4r	.	.	8f/	.	.
.	.	.	8a/	.	.
4r	.	.	8g/	.	.
.	8ryy	.	8f/J)	.	.
=13	=13	=13	=13	=13	=13
*	*	*	*^	*	*
!	!	!	!LO:SIC:v:s:t=gdzieś tu powinno być 2):obie ręce na drugiej klawiaturze:beide Hande auſ dem zweiten Manual	!	!	!
4r	4ryy	.	(2g/	4r	.	.
*	*	*^	*	*	*	*
(2c/	4B-\	2	3	.	(4e\	.	<
*	*	*v	*v	*	*	*	*
*	*	*	*	*	*^	*
.	4A\	.	4cc/	4f#X\	5	2	.
*	*	*	*	*	*v	*v	*
=14	=14	=14	=14	=14	=14	=14
*	*	*	*	*	*above	*
8d/)	8G\	.	8b-/L	8g\)	4	.
8r	2ryy	.	8a/	8r	3	.
4r	.	.	8g/	4r	1	.
.	.	.	8a/	.	.	.
4r	.	.	8b-/	4r	.	.
.	8ryy	.	8cc/J	.	.	.
*clefG2	*	*	*	*	*	*
=15	=15	=15	=15	=15	=15	=15
!	!	!	!	!LO:TX:t=P:problem=łuk między cyframi palcowania	!	!
4r	4ryy	.	2dd/	4r	5	.
.	.	.	.	.	3	.
(2g/	4f\	.	.	(4bn\	.	.
.	4e\	.	4gg/	4cc#X\	.	.
=16	=16	=16	=16	=16	=16	=16
!	!	!	!LO:TX:t=P:LO:N:vis=4:problem	!	!	!
8a/)	8d\	.	8ff/L	8dd\)	.	.
8r	2ryy	.	8ee/	8r	3	.
4r	.	.	8dd/	4r	1	.
.	.	.	8ff/	.	5	.
4r	.	.	8dd/	4r	3	.
.	8ryy	.	8cc/J	.	2	[
*v	*v	*	*	*	*	*
*	*	*v	*v	*	*
*clefF4	*	*	*	*
=17	=17	=17	=17	=17
2.r	.	8bn/L	1	>
.	.	8dd/	5	.
.	.	8b/	4	.
.	.	8a/	3	.
.	.	8g#X/	2	.
.	.	8b/J)	4	]]
=18	=18	=18	=18	=18
*^	*	*^	*	*
!	!	!	!LO:TX:a:t=3):na prawej klawiaturze:Erstes Manual	!	!	!
4r	4ryy	.	(2cc/	4ryy	5	p
*	*	*	*	*	*^	*
(4A/	4AA\	1	.	(4e\	.	1	.
4F#X/	4BBn\	2	8bn/L	4d#X\	5	2	.
.	.	.	8a/J	.	4	.	.
=19	=19	=19	=19	=19	=19	=19	=19
*	*	*^	*	*	*	*	*
8E/)	8C\	1	4	8g/L	8e\)	3	1	.
*	*	*v	*v	*	*	*v	*v	*
8r	2ryy	.	8f#X/	8r	.	.
4r	.	.	8e/)	4r	.	.
.	.	.	(8g/	.	2	.
4r	.	.	8a/	4r	.	.
.	8ryy	.	8bn/J	.	.	.
=20	=20	=20	=20	=20	=20	=20
4r	4ryy	.	2cc/	4r	.	pp
(4A/	4AA\	.	.	[[4e\	.	<
4F#X/	4BBn\	.	8bn/L	4d#X\	.	.
.	.	.	8a/J	.	.	.
=21	=21	=21	=21	=21	=21	=21
*	*	*^	*	*	*^	*
4.E/	4C\	1	4	2g/	2e\]]	3	1	.
.	.	2	5	.	.	5	.	.
.	4C#X\	.	4	.	.	.	.	.
8B-/	.	1	.	.	.	.	.	.
4A/)	4D\	1	3	4f/	[4d\	4	2	[
*	*	*v	*v	*	*	*v	*v	*
!!LO:LB:g=original
=22	=22	=22	=22	=22	=22	=22
*xywh-8:521,2240,5297,1030	*xywh-8:521,2240,5297,1030	*	*xywh-8:521,2240,5297,1030	*xywh-8:521,2240,5297,1030	*	*
!	!	!	!	!LO:TX:t=P:problem=łuk między cyframi palcowania	!	!
2G/	2.GG\	.	2e/	4d\]	3	>
.	.	.	.	.	5	.
*	*	*	*	*	*below	*
.	.	.	.	4c\	1	.
*	*	*	*	*	*^	*
*	*	*below	*	*	*	*	*
4F/	.	2	4d/	4Bn\	4	2	.
=23	=23	=23	=23	=23	=23	=23	=23
*	*	*^	*	*	*	*	*
*ped	*	*	*	*	*	*	*	*
([2.E/	[2.C\	1	3	8c/)	8G\	3	1	.
.	.	.	5	.	.	.	.	.
*	*	*v	*v	*	*	*v	*v	*
.	.	.	8r	2ryy	.	]
!	!	!	!LO:TX:a:t=4):jak przy 1): wie bei 1)	!	!	!
!	!	!	!LO:TX:b:i:t=dolce	!	!	!
.	.	.	(>4g/	.	.	.
.	.	.	4a/	.	.	.
.	.	.	.	8ryy	.	.
*	*	*	*v	*v	*	*
=24	=24	=24	=24	=24	=24
4E/]	2.C\_	.	8g/L	.	.
.	.	.	8e/J	.	.
*	*	*above	*	*	*
4D/	.	4	4f/	.	.
4F/	.	2	4d/	.	.
=25	=25	=25	=25	=25	=25
4.G/	2.C\_	.	4e/	.	.
.	.	.	4.g/	.	.
8F/	.	.	.	.	.
[4E/	.	.	.	.	.
.	.	.	8a/	.	.
=26	=26	=26	=26	=26	=26
4E/]	2.C\_	.	8g/L	.	.
.	.	.	8e/J	.	.
8D/L	.	.	4f/	.	.
8E/	.	.	.	.	.
8F/	.	.	4d/	.	.
8G/J	.	.	.	.	.
=27	=27	=27	=27	=27	=27
*	*	*	*	*above	*
8E/L	2.C\_	.	8c/L	2	<
8F/J	.	.	8d/	3	.
4G/	.	.	8e/	1	.
.	.	.	8f/	.	.
8E/L	.	.	8g/	.	.
8F/J	.	.	8a/J	.	.
=28	=28	=28	=28	=28	=28
*	*	*	*	*below	*
(4G/	(2C\]	.	8b-/L	5	.
.	.	.	8e-X/J	2	.
8F#X/))	.	.	8d/)	1	[ >
8r	.	.	8r	.	.
*	*	*below	*	*	*
4r	8BB-\L	3	4r	.	]]
.	8AA\J	4	.	.	.
*v	*v	*	*	*	*
=29	=29	=29	=29	=29
*	*	*^	*	*
!	!	!LO:TX:a:t=5):prawa ręka na pierwszej , lewa na drugiej klawiaturze: Die rechte Hand auſ dem ersten, die liuke auſ dem zweiten	!	!	!
*	*above	*	*	*	*
*	*	*	*	*^	*
8GG/)	5	(2.b-/	([2.g\	4	1	.
*	*	*	*	*v	*v	*
8r	.	.	.	.	.
*	*below	*	*	*	*
(4d\	3	.	.	.	.
4e-X\	2	.	.	.	.
=30	=30	=30	=30	=30	=30
*	*above	*	*	*	*
8d\L	1	4b-/	2g\]	.	.
8B-\J	.	.	.	.	.
4c\	.	4a/	.	.	.
*	*	*	*	*^	*
4A\	.	4ee-X/	4f#X\	3	2	.
*	*	*	*	*v	*v	*
=31	=31	=31	=31	=31	=31
*	*	*	*	*above	*
4B-\)	.	8dd/L	8g\)	5	.
.	.	8cc/	8r	.	.
(4.d\	1	8b-/	4r	.	.
.	.	8a/J	.	.	.
.	.	[4g/	[4g\	.	.
8e-X\	2	.	.	.	.
=32	=32	=32	=32	=32	=32
8d\L	1	4g/]	2g\]	.	.
8B-\J	.	.	.	.	.
4c\	.	8a/L	.	3	.
.	.	8b-/J	.	4	.
*	*	*	*	*^	*
4A\	.	4cc/	4f#X\	5	2	.
!!LO:LB:g=original
=33	=33	=33	=33	=33	=33	=33
*xywh-8:521,3029,5314,1271	*	*xywh-8:521,3029,5314,1271	*xywh-8:521,3029,5314,1271	*	*	*
8G\L	.	8b-/L	8g\	4	1	<
*	*	*	*	*v	*v	*
8A\	.	8a/	8r	3	.
8B-\	.	8g/	[2g\	1	.
8c\	.	8a/	.	.	.
8d\	1	8b-/	.	.	.
8en\J	2	8cc/J	.	.	.
=34	=34	=34	=34	=34	=34
8f\L	1	4dd/	4g\_	.	.
8B-\J	3	.	.	.	.
8A\)	4	8cc#X/L	8g\]	.	.
8r	.	8dd/	8r	.	[
4r	.	8ee/	4r	.	.
.	.	8a/J)	.	2	.
=35	=35	=35	=35	=35	=35
*^	*	*	*	*	*
!	!	!	!LO:TX:a:t=6):na pierwszej klawiaturze:Erstes Manual	!	!	!
4r	4ryy	.	(2ff/	4r	5	.
*	*	*^	*	*	*^	*
(4d/	(4D\	1	5	.	(4a\	.	1	.
4Bn/	4E\	.	4	8ee/L	4g#X\	5	2	.
*	*	*	*	*	*	*v	*v	*
.	.	.	.	8dd/J	.	.	.
=36	=36	=36	=36	=36	=36	=36	=36
8A/)	8F\)	2	3	8cc/L	8a\)	.	>
*	*	*v	*v	*	*	*	*
8r	2ryy	.	8bn/	8r	.	.
4r	.	.	8a/)	4r	.	.
.	.	.	(8cc/	.	2	.
4r	.	.	8dd/	4r	.	.
.	8ryy	.	8ee/J	.	.	.
=37	=37	=37	=37	=37	=37	=37
4r	4ryy	.	2ff/	4r	.	] pp
(4d/	(4D\	.	.	(4a-\	.	.
4Bn/	4E\	.	8ee/L	4g#X\	.	.
.	.	.	8dd/J	.	.	.
=38	=38	=38	=38	=38	=38	=38
8A/)	8F\)	.	8cc/L	8a\)	.	<
8r	2ryy	.	8bn/	8r	.	.
4r	.	.	8a/	4r	.	.
.	.	.	8cc/	.	.	.
4r	.	.	8dd/	4r	.	.
.	8ryy	.	8ee/J	.	.	[
=39	=39	=39	=39	=39	=39	=39
!	!	!	!LO:TX:b:t=espress.	!	!	!
!	!	!	!LO:TX:a:t=7):na drugiej klawiaturze:Zweites Manual	!	!	!
4r	4ryy	.	2ff/	4r	.	.
*	*	*^	*	*	*^	*
(2B-/	4D\	1	5	.	(4a-X\	.	2	.
.	[4E-X\	.	3	8ee-X/L	[4g\	4	1	.
*	*	*v	*v	*	*	*v	*v	*
.	.	.	8dd/J	.	5	.
=40	=40	=40	=40	=40	=40	=40
2.A/)	8E-\L]	.	8cc/L	4g\]	3	.
*	*	*below	*	*	*	*
.	8C\J	5	8ee-X/J	.	.	.
*	*	*	*	*	*^	*
.	2D\	4	4dd/	2f#X\)	5	2	.
.	.	.	4a/)	.	.	.	.
*	*	*	*	*	*v	*v	*
=41	=41	=41	=41	=41	=41	=41
*	*	*	*	*	*^	*
4r	4r	.	(2dd/	4r	.	2	.
*	*	*^	*	*	*	*	*
(2G/	(4BBn\	1	5	.	(4fn\	4	1	.
*	*	*v	*v	*	*	*	*	*
.	[4C\	.	8cc/L	4e\	3	.	.
.	.	.	8b-X/J	.	.	.	.
=42	=42	=42	=42	=42	=42	=42	=42
*	*	*above	*	*	*	*	*
4G-X/	8C\L]	2	8a/L	4e-X\	4	2	.
*	*	*below	*	*	*	*	*
.	8AA\J	5	8cc/J	.	5	.	.
*	*	*^	*	*	*	*	*
2F/)	2BB-\)	1	4	4b-/	2d\)	4	1	.
*	*	*v	*v	*	*	*v	*v	*
.	.	.	4f/)	.	2	.
!!LO:PB:g=original
=43	=43	=43	=43	=43	=43	=43
*xywh-9:108,309,5541,1313	*xywh-9:108,309,5541,1313	*	*xywh-9:108,309,5541,1313	*xywh-9:108,309,5541,1313	*	*
4r	4r	.	(2b-/	4r	.	.
*	*	*	*	*	*^	*
2E-X/	(4GG\	5	.	(4d-X\	.	2	.
.	[4AA-X\	3	8a-X/L	[4c\	4	1	.
.	.	.	8g/J	.	5	.	.
*	*	*	*	*	*v	*v	*
=44	=44	=44	=44	=44	=44	=44
[2.D/	8AA-\L]	.	8f/L	4c\]	3	.
.	8FF\J	5	8a-X/J	.	5	.
.	2GG\)	4	4g/)	2Bn\)	4	.
.	.	.	(8d/L	.	2	.
.	.	.	8e/J	.	.	.
=45	=45	=45	=45	=45	=45	=45
*	*	*	*	*	*^	*
2.D/_	(8AA-X\L	.	8f/L	(4c\	.	2	.
.	8FF\J	.	8a-X/	.	.	.	.
.	2GG\	.	8g/	2Bn\	.	1	.
.	.	.	8c#X/	.	2	.	.
.	.	.	8d/	.	2	.	.
.	.	.	8e/J	.	3	.	.
*	*	*	*	*	*v	*v	*
=46	=46	=46	=46	=46	=46	=46
*	*	*	*	*	*below	*
(2.D/]	8AA-X\L	.	8f/L	4c\	2	.
.	8FF\J	.	8a-X/J	.	.	.
.	2GG\)	.	4g/)	2Bn\	1	.
.	.	.	(8d/L	.	3	.
.	.	.	8f/J	.	5	.
=47	=47	=47	=47	=47	=47	=47
!	!LO:TX:t=P:problem=łuk między cyframi palcowania	!	!	!	!	!
*	*	*	*	*	*^	*
4.C/)	[2.C\	2	8e/L	[2.B-X\)	4	2	.
.	.	5	8d/J	.	3	.	.
*	*	*	*	*	*v	*v	*
*	*	*	*	*	*above	*
!	!	!	!LO:TX:t=P:problem=łuk między cyframi palcowania	!	!	!
.	.	.	[2c/	.	1	.
(8D/L	.	4	.	.	3	.
8E/	.	3	.	.	.	.
8A/J	.	1	.	.	.	.
=48	=48	=48	=48	=48	=48	=48
*	*	*above	*	*	*	*
4G/)	4C\]	2	4c/])	4B-\]	.	.
!	!	!	!LO:TX:a:t=8):na pierwszej klawiaturze wszystkimi głosami:Erstes Manual mit allen Stimmen.	!	!	!
2ryy	8r	.	4r	2ryy	.	f
*	*	*below	*	*	*	*
.	(8C\L	5	.	.	.	.
.	8D\	3	4r	.	.	.
.	8F\J	1	.	.	.	.
*v	*v	*	*	*	*	*
*	*	*v	*v	*	*
=49	=49	=49	=49	=49
4E\)	2	2.r	.	.
8r	.	.	.	.
(>8AA/L	5	.	.	.
8BB-/	3	.	.	.
8D/J	1	.	.	.
=50	=50	=50	=50	=50
8C/L	2	2.r	.	.
8GG/	5	.	.	.
8AA/	3	.	.	.
8C/	1	.	.	.
8BB-/	2	.	.	.
8GG/J	4	.	.	.
=51	=51	=51	=51	=51
*^	*	*	*	*
*ped	*	*	*	*	*
!LO:N:vis=2	!	!	!	!	!
4FF/)	[2.FF\	.	2.ryy	.	.
(4C/	.	2	.	.	.
4D/	.	1	.	.	.
=52	=52	=52	=52	=52	=52
*	*	*	*^	*	*
*	*	*	*	*	*^	*
*	*	*above	*	*	*	*	*
8C/L	2.FF\_	2	(8d/L	2.B-\	3	2	f
*	*	*	*	*	*v	*v	*
8AA/J	.	3	16r	.	.	.
.	.	.	16g/Jk	.	5	.
*	*	*below	*	*	*	*
4BB-/	.	2	4d/	.	3	.
4GG/)	.	4	4e/	.	4	.
=53	=53	=53	=53	=53	=53	=53
*	*	*	*	*	*^	*
*	*	*above	*	*	*	*	*
(4AA/	2.FF\_	3	4f/)	4A\	5	1	.
*	*	*	*	*	*v	*v	*
4C/	.	1	4r	2ryy	.	.
8D/L	.	2	4r	.	.	.
8E/J	.	1	.	.	.	.
!!LO:LB:g=original
=54	=54	=54	=54	=54	=54	=54
*xywh-9:175,1370,5564,1111	*xywh-9:175,1370,5564,1111	*	*xywh-9:175,1370,5564,1111	*xywh-9:175,1370,5564,1111	*	*
8D/L	2.FF\_	2	(8d/L	(2.B-\	.	.
8AA/J	.	4	16r	.	.	.
.	.	.	16g/Jk	.	.	.
4BB-/	.	2	4d/	.	.	.
4GG/	.	4	4e/	.	.	.
=55	=55	=55	=55	=55	=55	=55
8AA/L	4FF\]	3	4f/)	4A\)	.	.
8C/	.	1	.	.	.	.
8D/	2ryy	2	4r	2ryy	.	.
8F/	.	1	.	.	.	.
8E/	.	2	4r	.	.	.
8C/J	.	4	.	.	.	.
*v	*v	*	*	*	*	*
=56	=56	=56	=56	=56	=56
8D\L	3	2.rff	4r	.	.
8F\	1	.	.	.	.
*	*	*	*	*below	*
8E\	2	.	(4cc\	5	.
8C\	4	.	.	.	.
8D\	3	.	[4f\	2	.
8F\J	1	.	.	.	.
=57	=57	=57	=57	=57	=57
*^	*	*	*	*	*
*	*	*	*	*	*above	*
4G/)	4r	2	2b-/	2f\]	5	.
*ped	*	*	*	*	*	*
(4C/	[2C\	5	.	.	.	.
*	*	*below	*	*	*	*
*	*	*	*	*	*^	*
4B-/	.	2	8a/L	4e\	4	1	.
.	.	.	8g/J	.	3	.	.
*	*	*	*	*	*v	*v	*
=58	=58	=58	=58	=58	=58	=58
*	*	*above	*	*	*below	*
4A/	4C\]	1	2f/	[2.f\	2	.
8G/L	4r	.	.	.	.	.
8F/	.	.	.	.	.	.
8E/	4r	.	8g/L	.	.	.
8D/J	.	.	8a/J	.	.	.
=59	=59	=59	=59	=59	=59	=59
4G/)	4r	.	2b-/	2f\]	.	.
*ped	*	*below	*	*	*	*
(4C/	(2C\	5	.	.	.	.
4B-/	.	2	8a/L	4e\	.	.
.	.	.	8g/J	.	.	.
=60	=60	=60	=60	=60	=60	=60
*	*	*above	*	*	*	*
8A/L	4F\)	1	4a/)	4f\	.	.
8G/	.	.	.	.	.	.
8F/	4r	.	4r	8r	.	.
8A/	.	.	.	(8f\L	.	.
8G/	4r	.	4r	8g\	.	.
8F/J	.	.	.	8a\J	.	.
=61	=61	=61	=61	=61	=61	=61
!	!	!	!	!LO:TX:t=P:problem=łuk między cyframi palcowania	!	!
2G/	4r	.	4r	2b-\	4	.
.	.	.	.	.	2	.
*	*	*below	*	*	*	*
!	!	!	!	!	!	!LO:HP:b=2
.	(4E\	4	8r	.	.	<
*	*	*	*	*	*^	*
.	.	.	(8cc/L	.	3	.	.
4c/	4F#X\	3	8dd/	4a\	4	1	.
.	.	.	8ee-X/J	.	5	.	.
=62	=62	=62	=62	=62	=62	=62	=62
*	*	*^	*	*	*	*	*
8B-/L	4G\)	2	4	8dd/L	4b-\)	4	2	.
*	*	*v	*v	*	*	*v	*v	*
8A/	.	.	8cc/	.	.	.
8G/	4r	.	8b-/	4r	.	.
*	*	*	*	*	*above	*
8A/	.	.	8cc/	.	1	.
8B-/	4r	.	8dd/	4r	.	.
8c/J	.	1	8ee/J	.	.	.
=63	=63	=63	=63	=63	=63	=63
!	!	!	!LO:TX:t=P:problem=mixed beam	!	!	!
!	!	!	!LO:N:vis=4	!LO:TX:t=P:problem=łuk między cyframi palcowania	!	!
*	*	*	*	*	*below	*
2d/	4r	.	4.ff/	(2ff\	4	.
.	(4Bn\	.	.	.	2	.
.	.	.	8gg/L	.	.	.
*	*	*^	*	*	*	*
4g/	4c#X\	1	3	8aa/	4ee\	.	.
.	.	.	.	8bb-/J	.	.	.
=64	=64	=64	=64	=64	=64	=64	=64
4f/)	4d\)	2	4	8aa/L	4ff\)	.	.
*	*	*v	*v	*	*	*	*
.	.	.	8gg/	.	.	.
4r	2ryy	.	8ff/	4r	.	.
.	.	.	8aa/	.	.	.
4r	.	.	8ff/	4r	.	.
.	.	.	8ee/J	.	.	.
*v	*v	*	*	*	*	*
*	*	*v	*v	*	*
!!LO:LB:g=original
=65	=65	=65	=65	=65
*xywh-9:175,2252,5575,2128	*	*xywh-9:175,2252,5575,2128	*	*
4r	.	8dd/L	.	.
.	.	8ff/	.	.
4Bn\ 4d 4f	.	8dd/	.	.
.	.	8cc/	.	.
4r	.	8bn/	.	.
.	.	8ff/J	.	.
=66	=66	=66	=66	=66
4G#X'\ 4d [[4f	.	8dd/L	.	.
.	.	8cc/	.	.
4r	.	8bn/	.	.
.	.	8ff/	.	.
4G#'\ 4d 4f]]	.	8dd/	.	.
.	.	8b/J	.	.
=67	=67	=67	=67	=67
*^	*	*^	*	*
*ped	*	*	*	*	*	*
!	!	!	!LO:TX:a:t=9):połączyć oba manuały:Beide Manuale koppela.	!	!	!
*	*	*	*	*	*^	*
4r	[2.C\	.	(2cc/)	4r	5	.	ff
(4A'/	.	2	.	(4f'\	.	1	.
4d'/)	.	1	8b-/L	4f#X'\)	4	2	.
.	.	.	8a/J	.	3	.	.
=68	=68	=68	=68	=68	=68	=68	=68
*	*	*above	*	*	*	*	*
(<4B-'/	2.C\_	2	4dd'/)	8g\L	5	2	.
.	.	.	.	8d\J	.	1	.
4G'/	.	1	(4b-'/	4fn\	5	2	.
4B-'/)	.	2	4g'/)	4e\	3	1	.
*	*	*	*	*	*v	*v	*
=69	=69	=69	=69	=69	=69	=69
4r	2.C\_	.	(2cc/	4r	.	.
(<4A'/	.	.	.	(4f'\	.	.
4d'/)	.	.	8b-/L	4f#X'\)	.	.
.	.	.	8a/J	.	.	.
=70	=70	=70	=70	=70	=70	=70
(<4B-'/	2.C\]	.	4dd/)	(8g\L	.	.
.	.	.	.	8d\J)	.	.
*	*	*	*	*	*above	*
4G'/	.	.	(4f'/ 4b-	2ryy	2 5	.
4B-'/)	.	.	4c'/) 4e	.	1 2	.
=71	=71	=71	=71	=71	=71	=71
4r	[2.FF\	.	(2f/	4r	.	.
(<4C'/	.	.	.	(4A\	.	.
4G'/)	.	.	8e-X/L	[4B-\)	.	.
.	.	.	8d/J	.	.	.
=72	=72	=72	=72	=72	=72	=72
(<4E-X'/	2.FF\_	.	4g/)	(8B-\L]	.	.
.	.	.	.	8G\J)	.	.
4C'/	.	.	(4B-'/ 4e-X	2ryy	2 5	.
4E-'/)	.	.	4A'/) 4c	.	1 3	.
=73	=73	=73	=73	=73	=73	=73
4r	2.FF\_	.	(2f/	4r	.	.
*	*	*below	*	*	*	*
((<4BB-'/	.	3	.	(4G'\	.	.
.	.	.	.	.	1 4	.
4E-X'/)	.	2	8d/L	4A'\)	.	.
.	.	.	8c/J	.	.	.
=74	=74	=74	=74	=74	=74	=74
!	!	!	!LO:TX:a:t=poco riten.	!	!	!
*	*	*above	*	*	*	*
4D'/	2.FF\_	1	4f/)	(8B-\L	.	.
.	.	.	.	8G\J)	.	.
*	*	*below	*	*	*	*
4BB-'/	.	3	(4B-'/ 4d	2ryy	2 3	.
4D-X'/	.	2	4G'/) 4e	.	1 4	.
=75	=75	=75	=75	=75	=75	=75
*	*	*above	*	*	*	*
2.C/)	2.FF\]	1	2.f/	2.A\	1 5	.
*v	*v	*	*	*	*	*
*	*	*v	*v	*	*
==	==	==	==	==
*-	*-	*-	*-	*-
!!!system-decoration: [(s1,s2)]
!!!RDF**kern: > = above
!!!RDF**kern: < = below
!!!ENC: Filip Voros
!!!END: 2022-03-12
!!!ENC: Leszek Kubiak
!!!END: 2022-03-22
!!!YEC: Copyright 2022 Narodowy Instytut Fryderyka Chopina (https://polishscores.org)
!!!YEM: License CC-BY-4.0 (https://creativecommons.org/licenses/by/4.0)
!!!IIIF: https://polona.pl/iiif/item/ODE1NjEwNDA/manifest.json
!!!ENC-iiif: Natalia Wrzos
!!!END-iiif: 2022-08-29
